X: 306
T: Mazourka No. 2.	 Op. 41
C: Fryderyk Chopin
%%abc-version 2.0
%%abcx-abcm2ps-target-version 5.9.1 (29 Sep 2008)
%%abc-creator hum2abc beta
%%abcx-conversion-date 2021/10/03 11:23:27
%%abc-edited-by Marta Lawrence
%%abc-edited-by Jacek Iwaszko
%%abc-edited-by Emilia Ziętek
%%abc-edited-by Leszek Kubiak
%%abcx-initial-encoding-date 2018-06-06
%%humdrum-veritas 38390567
%%humdrum-veritas-data 816839572
%%linebreak <none>
%%barnumbers 0
L: 1/8
M: 3/4
N: Derived from 041-1a-TR-002.krn
P: Quatre Mazurkas pour le piano
Q: "Animato."
%%staves {1 2}
V: 1 clef=treble
V: 2 clef=bass
K: B
[V:1] [EC][DB,]!accent![D4B,4] | 
[V:2] F,2F,4 & [B,,2B,,,2][B,,4B,,,4] | 
[V:1] [EC][DB,]!accent![D4B,4] | 
[V:2] F,2F,4 & [B,,2B,,,2][B,,4B,,,4] | 
[V:1] [EC][DB,]!accent![D4B,4] | 
[V:2] F,2F,4 & [B,,2B,,,2][B,,4B,,,4] | 
[V:1] [EC][DB,]!accent![D4B,4]- | 
[V:2] F,2F,4- & [B,,2B,,,2][B,,4-B,,,4] | 
[V:1] [D2B,2]CB,EF | 
[V:2] F,2x4 & [B,,2B,,,2]C,B,,E,F, | 
[V:1] GDEGBc | 
[V:2] G,D,E,G,B,C | 
[V:1] .dz/A/ (3BcB AG | 
[V:2] D zC,2[B,2^E,2] | 
[V:1] FCDEGF | 
[V:2] F,,2[A,2=E,2][A,2E,2] | 
[V:1] [EC][DB,]!accent![D4B,4] | 
[V:2] F,2F,4 & [B,,2B,,,2][B,,4B,,,4] | 
[V:1] [EC][DB,]!accent![D4B,4] | 
[V:2] F,2F,4 & [B,,2B,,,2][B,,4B,,,4] | 
[V:1] [EC][DB,]!accent![D4B,4] | 
[V:2] F,2F,4 & [B,,2B,,,2][B,,4B,,,4] | 
[V:1] [EC][DB,]!accent![D4B,4]- | 
[V:2] F,2F,4- & [B,,2B,,,2][B,,4-B,,,4] | 
[V:1] [D2B,2]CB,EF | 
[V:2] F,2x4 & [B,,2B,,,2]C,B,,E,F, | 
[V:1] GDEGBc | 
[V:2] G,D,E,G,B,C | 
[V:1] .d z/ =A/ (3_B=cB _A=G | 
[V:2] D z_B,,2[_E2=G,2] | 
[V:1] _A=E=FA=c_B | 
[V:2] _B,,2[=D2_A,2][D2A,2] | 
[V:1] !wedge!=G2(3_B=cB _AG | 
[V:2] _E,2[_E2=G,2][E2G,2] | 
[V:1] _A=E=FA=c_B | 
[V:2] _B,,2[=D2_A,2][D2A,2] | 
[V:1] !wedge!=G2(3_BcB _AG | 
[V:2] _E,2[_E2=G,2]z2 | 
[V:1] FCDEGF | 
[V:2] F,,2[A,2E,2][A,2E,2] | 
[V:1] [EC][DB,][D4B,4] | 
[V:2] F,2F,4 & [B,,2B,,,2][B,,4B,,,4] | 
[V:1] [EC][DB,][D4B,4] | 
[V:2] F,2F,4 & [B,,2B,,,2][B,,4B,,,4] | 
[V:1] [EC][DB,][D4B,4] | 
[V:2] F,2F,4 & [B,,2B,,,2][B,,4B,,,4] | 
[V:1] [EC][DB,][D4B,4]- | 
[V:2] F,2F,4- & [B,,2B,,,2][B,,4-B,,,4] | 
[V:1] [D2B,2]CB,EF | 
[V:2] F,2x4 & [B,,2B,,,2]C,B,,E,F, | 
[V:1] GDEGBc | 
[V:2] G,D,E,G,B,C | 
[V:1] dz/A/ (3BcB AG | 
[V:2] D zC,2[B,2^E,2] | 
[V:1] FCDEGF | 
[V:2] F,,2[A,2=E,2][A,2E,2] | 
[V:1] [EC][DB,][D4B,4] | 
[V:2] F,2F,4 & [B,,2B,,,2][B,,4B,,,4] | 
[V:1] [EC][DB,][D4B,4] | 
[V:2] F,2F,4 & [B,,2B,,,2][B,,4B,,,4] | 
[V:1] [EC][DB,][D4B,4] | 
[V:2] F,2F,4 & [B,,2B,,,2][B,,4B,,,4] | 
[V:1] [EC][DB,][D4B,4]- | 
[V:2] F,2F,4- & [B,,2B,,,2][B,,4-B,,,4] | 
[V:1] [D2B,2]CB,EF | 
[V:2] F,2x4 & [B,,2B,,,2]C,B,,E,F, | 
[V:1] GDEGBc | 
[V:2] G,D,E,G,B,C | 
[V:1] =d z/ ^G/ (3=ABA =GF | 
[V:2] =D z=A,,2[=D2F,2] | 
[V:1] =GDEGB=A | 
[V:2] =A,,2[C2=G,2][C2G,2] | 
[V:1] .F2(3=ABA =GF | 
[V:2] =D,2[=D2=A,2F,2][D2A,2F,2] | 
[V:1] =GDEGB=A | 
[V:2] =A,,2[C2=G,2][C2G,2] | 
[V:1] !accent!=D6 | 
[V:2] =D,,2[=C2F,2=D,2][B,2=G,2D,2] | 
[V:1] !accent!=D6 | 
[V:2] .=D,,2[=A,2=D,2=C,2][=G,2D,2B,,2] | 
[V:1] (3.[=D=C].[DB,].[D=A,]!wedge![D2C2]!accent![D2B,2] | 
[V:2] .=D,,2[F,2=D,2][=G,2D,2] | 
[V:1] x6 | 
[V:2] (3.[=D=A,].[D=G,].[DF,]!wedge![D2A,2]!accent![D2G,2] & .=D,,2[=D,2=C,2][D,2B,,2] | 
[V:1] !accent![=d6=D6] | 
[V:2] [=D,2=D,,2][K:clef=treble][F2=C2=A,2][=G2=D2B,2][K:clef=bass] | 
[V:1] !accent![=d6=D6] | 
[V:2] [=D,2=D,,2][K:clef=treble][G2=F2B,2][=A2^F2C2][K:clef=bass] | 
[V:1] (3.[=d=c=D].[dBD].[d=AD]!wedge![d2c2D2]!accent![d2B2D2] | 
[V:2] [=D,2=D,,2][=C2F,2D,2][B,2=G,2D,2] | 
[V:1] (3.[=d=A=D].[d=GD].[dFD]!wedge![d2A2D2].[=g2G2] | 
[V:2] [=D,2=D,,2][=C2F,2D,2][B,2D,2=G,,2] | 
[V:1] !accent![b6B6] | 
[V:2] [B,,2B,,,2][D2B,2F,2][E2B,2=G,2] | 
[V:1] (3.[b=aB].[b=gB].[bfB]!wedge![b2a2B2]!accent![b2g2B2] | 
[V:2] [B,,2B,,,2][K:clef=treble][=A2D2B,2][=G2E2B,2][K:clef=bass] | 
[V:1] (3.[bfB].[beB].[bdB]!wedge![b2f2B2]!accent![e'2e2] | 
[V:2] [B,2B,,2][K:clef=treble][=A2D2B,2][K:clef=bass][=G2B,2E,2] | 
[V:1] (3.[BFB,].[BEB,].[BDB,]!wedge![B2F2B,2][e2E2] | 
[V:2] (3[=A,B,,][A,B,,][A,B,,][A,2B,,2][=G,2B,,2E,,2] | 
[V:1] [f6F6] | 
[V:2] [F,,2F,,,2][E2C2F,2]!arpeggio![=D2F,2B,,2] | 
[V:1] (3[feF].[f=dF].[fcF][f2e2F2]!accent![f2d2F2] | 
[V:2] [F,,2F,,,2][A,2C,2][B,2=D,2] | 
[V:1] (3.[fcF].[fBF].[fAF][f2c2F2]!accent![b2B2] | 
[V:2] [F,,2F,,,2][E2A,2F,2][=D2F,2B,,2][K:clef=treble] | 
[V:1] [b'2b2]{/[aa']}!accent![b'2b2].[b2B2] | 
[V:2] [B2B,2]{/[A,A]}!accent![B2B,2][K:clef=bass][B,2B,,2] | 
[V:1] !accent!B6- & !wedge!B,2CB,EF | 
[V:2] B,,2C,B,,E,F, & B,,,4z2 | 
[V:1] B4x2 & GDEGBc | 
[V:2] G,D,E,G,B,C | 
[V:1] !wedge!d z/ A/ (3BcB AG | 
[V:2] .D zC,2[B,2^E,2] | 
[V:1] FCDEGF | 
[V:2] F,,2[A,2=E,2][A,2E,2] | 
[V:1] !accent!B6- & .B,2CB,EF | 
[V:2] B,,2C,B,,E,F, & B,,,4z2 | 
[V:1] B4x2 & GDEGBc | 
[V:2] G,D,E,G,B,C | 
[V:1] !wedge!d z/ =A/ (3_B=cB _A=G | 
[V:2] !wedge!D z_B,,2[_E2=G,2] | 
[V:1] _A=E=FA=c_B | 
[V:2] _B,,2[=D2_A,2][D2A,2] | 
[V:1] .=G2(3_B=cB _AG | 
[V:2] _E,2[_E2=G,2][E2G,2] | 
[V:1] _A=E=FA=c_B | 
[V:2] _B,,2[=D2_A,2][D2A,2] | 
[V:1] .=G2(3_B=cB _AG | 
[V:2] _E,2[_E2=G,2]z2 | 
[V:1] FCDEGF | 
[V:2] F,,2[A,2E,2][A,2E,2] | 
[V:1] !accent!B6- & B,2CB,EF | 
[V:2] B,,2C,B,,E,F, & B,,,4z2 | 
[V:1] B4x2 & GDEGBc | 
[V:2] G,D,E,G,B,C | 
[V:1] .d z/ ^A/ (3BcB AG | 
[V:2] D zC,2[B,2^E,2] | 
[V:1] FCDEGF | 
[V:2] F,,2[^A,2=E,2][A,2E,2] | 
[V:1] !accent!B6- & .B,2CB,EF | 
[V:2] .B,,2C,B,,E,F, & B,,,4z2 | 
[V:1] B4x2 & =GDEGBc | 
[V:2] =G,D,E,G,B,C | 
[V:1] dABdef | 
[V:2] DA,B,DEF[K:clef=treble] | 
[V:1] =gdegbc' | 
[V:2] =GDEGBc | 
[V:1] d'2z2z2 | 
[V:2] d2z2z2 | 
[V:1] [EC][DB,]!accent![D4B,4] | 
[V:2] =d2d4 & [G2G,2][G4G,4] | 
[V:1] [EC][DB,]!accent![D4B,4] | 
[V:2] d2d4 & [G2G,2][G4G,4] | 
[V:1] [EC][DB,]!accent![D2B,2]z2 |]  
[V:2] d2d2z2 & [G2G,2][G2G,2]x2 |]
